X:1
T:At Bethlehem
T:At Bethlehem
T:Joseph Lincoln Hall
T:Luella Clark, 1900
T:Public Domain Courtesy of the Cyber Hymnal™
T:Public Domain Courtesy of the Cyber Hymnal™
C:Joseph Lincoln Hall
Z:Public Domain
Z:Courtesy of the Cyber Hymnal™
%%score ( 1 2 ) ( 3 4 )
L:1/8
Q:1/4=100
M:3/4
K:A
V:1 treble 
V:2 treble 
V:3 bass 
V:4 bass 
V:1
 [CE]2 | (cB) [CA]2 [CE]2 | [EG]2 [DF]2 [DF]2 | (EF) [EG]2 [Ed]2 | [Ec]4 [CE]2 | (cB) [CA]2 [CE]2 | %6
w: 1.~A|Babe * in the|man- ger, A|song * in the|sky; On|earth * ben- e-|
w: 2.~A|Prince * and a|Sav- ior, Im-|man- * u- el,|King; An|un- * fail- ing|
w: 3.~Glad|day- * spring from|Hea- ven, Break|bright * on our|night; For|morn- * ing bring|
w: 4.~Pre-|parèd * is Thy|path- way, In|pas- * sion of|pain; E-|ter- * nal Thy|
 [EG]2 [DF]2 [DF]2 | (EG) B2 [^DB]2 | [EB]4"^Girls" E2 | (dB) G2 E2 | E2 c2 E2 | (dB) G2 E2 | %12
w: dic- tion, Re-|joic- * ing on|high. A|glo- * ry for|Ju- dah, A|won- * der- ful|
w: king- dom Of|bless- * ing to|bring. A|king- * dom of|mer- cy, Of|love, * and of|
w: glad- ness, For|dark- * ness give|light. Hail,|Son * of the|High- est, Re-|deem- * er di-|
w: glo- ry, E-|ter- * nal Thy|reign. Priest,|Pro- * phet and|Sav- ior; Sing,|hosts * of the|
 A4"^All" C2 | F3 ^E FG | A2 F2 A2 | [^Ec]2 [Ec]2 [Ec]2 | !fermata![Ec]4 ||"^Refrain" [DE]2 | %18
w: Light, To|light- en the Gen-|tiles In sor-|row and night.|||
w: peace, Whose|pow- er shall ev-|er And ev-|er in- crease.|||
w: vine; Heav’n’s|hosts are Thy her-|alds, The star|is Thy sign.|||
w: sky, Shine,|stars, at your bright-|est; Re- demp-|tion is nigh.|||
 (cB) [CA]2 [CE]2 | [EG]2 [DF]2 [DF]2 | (EF) [DG]2 [Ed]2 | [Ec]4 [CE]2 | (cB) [CA]2 [CE]2 | %23
w: |||||
w: |||||
w: |||||
w: |||||
 [EG]2 [DF]2 [Af]2 | (ec) A2 [GB]2 | A4 |] %26
w: |||
w: |||
w: |||
w: |||
V:2
 x2 | C2 x4 | x6 | D2 x4 | x6 | C2 x4 | x6 | EG B2 x2 | x6 | x6 | x6 | x6 | x4 C2 | (F3 ^E) FG | %14
 A2 F2 A2 | x6 | x4 || x2 | C2 x4 | x6 | D2 x4 | x6 | C2 x4 | x6 | A2 A2 x2 | A4 |] %26
V:3
 [A,,A,]2 | [A,,A,]2 [A,,A,]2 [A,,A,]2 | [D,A,]2 [D,A,]2 [D,A,]2 | (G,A,) [E,B,]2 [E,G,]2 | %4
w: ~|~ ~ ~|~ ~ ~|~ * ~ ~|
 [A,,A,]4 [A,,A,]2 | [A,,A,]2 [A,,A,]2 [A,,A,]2 | [D,A,]2 [D,A,]2 [D,A,]2 | E,G, B,2 [B,,A,]2 | %8
w: ~ ~|~ ~ ~|~ ~ ~|~ ~ ~ ~|
 [E,G,]4 z2 | E,,2 [E,G,D]2 [E,G,D]2 | A,,2 [E,A,C]2 [E,A,C]2 | E,,2 [E,G,D]2 [E,G,D]2 | %12
w: ~|~ ~ ~|~ ~ ~|~ ~ ~|
 A,,2 [E,A,C]2 C,2 | F,3 ^E, F,G, | A,2 F,2 A,2 | [C,G,]2 [C,G,]2 [C,G,]2 | !fermata![C,G,]4 || %17
w: ~ ~ ~|~ ~ ~ ~|~ ~ ~|~ ~ ~|A|
 [E,G,]2 | [A,,A,]2 [A,,A,]2 [A,,A,]2 | [D,A,]2 [D,A,]2 [D,A,]2 | (G,A,) [E,B,]2 [E,G,]2 | %21
w: Babe|in the man-|ger, A song|in * the sky;|
 [A,,A,]4 [A,,A,]2 | [A,,A,]2 [A,,A,]2 [A,,A,]2 | [D,A,]2 [D,A,]2 [^D,=C]2 | [E,C]2 [E,C]2 [E,D]2 | %25
w: On earth|ben- e- dic-|tion, Re- joic-|ing on high.|
 [A,,A,C]4 |] %26
w: |
V:4
 x2 | x6 | x6 | E,2 x4 | x6 | x6 | x6 | E,G, B,2 x2 | x6 | x6 | x6 | x6 | x4 C,2 | (F,3 ^E,) F,G, | %14
 A,2 F,2 A,2 | x6 | x4 || x2 | x6 | x6 | E,2 x4 | x6 | x6 | x6 | x6 | x4 |] %26

